!!!OTL: O dulcissime Jesu 
**kern
*staff1
=1-
*clefC3
*k[b-]
*met(c|)
*M2/2
2F/
2B-/
4A/
2B-/
4d\
=2
2c\
2F/
4r
4F/
4.f\
8f\
=3
4f\
4f\
2B-/
2f\
4r
4B-/
=4
4B-/
4B-/
4c\
4G/
2d\
2G/
!!linebreak:original
=5
4r
2d\
4d\
2B-/
4c\
4d\
=6
2c\
4F/
2f\
4f\
2B-/
=7
4c\
4d\
2c\
0F
==
*-
!!title: @{OTL}, @{GTL}, ed. @{ENC}
!!!pag:
!!!GTL: Hymnbook D
!!!EFL: 
!!!YEM: Creative Commons CC/BY/NC/SA 4.0
!!!ENC: Marcin Konik
!!!END: 2015-0m-dd
!!!EED: Marcin Konik
!!!EEV: 
!!!ONB: Encoded in vim by Marcin Konik
!!!CharacterEncoding: utf-8
!!!RDF**kern: l=long note in original notation
!!!RDF**kern: i=editorial accidental
!!muse2ps: z14jc180F
!!!COM: Anonim
!!!CDT: [?]
!!!TXO: Polish
!!!ODT: 
!!!GTL: Hymnbook D
!!!ARL: Opactwo św. Wojciecha, Staniątki 
!!!voices:	1
